public/svg/imanLogo.svg

<svg width="163" height="97" viewBox="0 0 163 97" fill="none" xmlns="http://www.w3.org/2000/svg">
<path d="M147 0H16C7.16344 0 0 7.16344 0 16V81C0 89.8366 7.16344 97 16 97H147C155.837 97 163 89.8366 163 81V16C163 7.16344 155.837 0 147 0Z" fill="#01CAB0"/>
<path d="M31.9344 63.1141V64.8925H34.0774V65.4534H31.9344V67.6401H31.2285V62.5532H34.4412V63.1141H31.9344Z" fill="white"/>
<path d="M37.5837 65.7516L36.7651 63.682C36.7408 63.6205 36.7154 63.5495 36.6887 63.469C36.662 63.3862 36.6365 63.2987 36.6123 63.2064C36.5613 63.398 36.5092 63.5578 36.4558 63.6856L35.6372 65.7516H37.5837ZM39.0536 67.6401H38.5079C38.4448 67.6401 38.3939 67.6248 38.3551 67.594C38.3162 67.5632 38.2871 67.5242 38.2677 67.4768L37.7802 66.2486H35.4407L34.9532 67.4768C34.9386 67.5194 34.9107 67.5573 34.8695 67.5904C34.8282 67.6236 34.7773 67.6401 34.7167 67.6401H34.1709L36.2557 62.5532H36.9688L39.0536 67.6401Z" fill="white"/>
<path d="M40.3357 67.6401H39.6299V62.5532H40.3357V67.6401Z" fill="white"/>
<path d="M45.0862 63.1318H43.398V67.6401H42.6958V63.1318H41.0039V62.5532H45.0862V63.1318Z" fill="white"/>
<path d="M49.9752 62.5532V67.6401H49.2693V65.3256H46.4569V67.6401H45.751V62.5532H46.4569V64.8215H49.2693V62.5532H49.9752Z" fill="white"/>
<path d="M59.223 65.0984C59.223 65.4795 59.1611 65.8262 59.0374 66.1385C58.9137 66.4509 58.7391 66.7184 58.5135 66.9408C58.2879 67.1633 58.0162 67.336 57.6985 67.4591C57.3832 67.5798 57.0339 67.6401 56.6506 67.6401H54.7041V62.5532H56.6506C57.0339 62.5532 57.3832 62.6147 57.6985 62.7378C58.0162 62.8585 58.2879 63.0312 58.5135 63.2561C58.7391 63.4785 58.9137 63.7459 59.0374 64.0583C59.1611 64.3707 59.223 64.7174 59.223 65.0984ZM58.4989 65.0984C58.4989 64.786 58.4553 64.5068 58.3679 64.2607C58.2806 64.0145 58.1569 63.8063 57.9968 63.6359C57.8367 63.4655 57.6427 63.3353 57.4147 63.2454C57.1867 63.1555 56.932 63.1105 56.6506 63.1105H55.4099V67.0828H56.6506C56.932 67.0828 57.1867 67.0378 57.4147 66.9479C57.6427 66.858 57.8367 66.729 57.9968 66.561C58.1569 66.3906 58.2806 66.1823 58.3679 65.9362C58.4553 65.6901 58.4989 65.4108 58.4989 65.0984Z" fill="white"/>
<path d="M61.5749 65.0168C61.7789 65.0168 61.9579 64.9931 62.1129 64.9458C62.2709 64.8961 62.4019 64.8275 62.5059 64.7399C62.6129 64.65 62.6929 64.5435 62.7459 64.4204C62.7999 64.2973 62.8259 64.1613 62.8259 64.0122C62.8259 63.7093 62.7249 63.4809 62.5209 63.3271C62.3169 63.1732 62.0109 63.0963 61.6039 63.0963H60.8329V65.0168H61.5749ZM63.9829 67.6401H63.3579C63.2289 67.6401 63.1339 67.5916 63.0739 67.4946L61.7199 65.6771C61.6789 65.6203 61.6339 65.58 61.5859 65.5564C61.5399 65.5303 61.4669 65.5173 61.3669 65.5173H60.8329V67.6401H60.1299V62.5532H61.6039C61.9339 62.5532 62.2189 62.5863 62.4589 62.6526C62.6989 62.7165 62.8969 62.81 63.0519 62.933C63.2099 63.0561 63.3259 63.2052 63.4009 63.3803C63.4759 63.5531 63.5139 63.7471 63.5139 63.9625C63.5139 64.1423 63.4849 64.3104 63.4269 64.4666C63.3689 64.6228 63.2839 64.7636 63.1719 64.889C63.0629 65.0121 62.9279 65.1174 62.7679 65.2049C62.6109 65.2925 62.4309 65.3588 62.2299 65.4037C62.3189 65.4534 62.3969 65.5256 62.4629 65.6203L63.9829 67.6401Z" fill="white"/>
<path d="M65.289 67.6401H64.583V62.5532H65.289V67.6401Z" fill="white"/>
<path d="M70.7521 62.5532L68.6281 67.6401H67.9951L65.8701 62.5532H66.4341C66.4971 62.5532 66.5481 62.5686 66.5871 62.5993C66.6251 62.6301 66.6541 62.6691 66.6741 62.7165L68.1441 66.3054C68.1751 66.3859 68.2061 66.4734 68.2351 66.5681C68.2661 66.6627 68.2941 66.7621 68.3181 66.8663C68.3431 66.7621 68.3681 66.6627 68.3951 66.5681C68.4211 66.4734 68.4511 66.3859 68.4821 66.3054L69.9481 62.7165C69.9631 62.6762 69.9911 62.6396 70.0321 62.6064C70.0761 62.5709 70.1281 62.5532 70.1891 62.5532H70.7521Z" fill="white"/>
<path d="M74.5461 67.0793L74.5421 67.6401H71.3291V62.5532H74.5421V63.1141H72.0351V64.8038H74.0651V65.3434H72.0351V67.0793H74.5461Z" fill="white"/>
<path d="M79.6439 62.5532V67.6401H79.2909C79.2349 67.6401 79.1879 67.6307 79.1489 67.6117C79.1129 67.5928 79.0759 67.5609 79.0399 67.5159L76.0239 63.682C76.0289 63.7412 76.0319 63.7992 76.0349 63.856C76.0369 63.9128 76.0379 63.966 76.0379 64.0157V67.6401H75.4199V62.5532H75.7839C75.8149 62.5532 75.8419 62.5555 75.8639 62.5603C75.8859 62.5626 75.9049 62.5686 75.9219 62.578C75.9389 62.5851 75.9559 62.597 75.9729 62.6135C75.9899 62.6277 76.0079 62.6467 76.0269 62.6703L79.0439 66.5006C79.0389 66.4391 79.0339 66.3799 79.0289 66.3231C79.0269 66.264 79.0249 66.2084 79.0249 66.1563V62.5532H79.6439Z" fill="white"/>
<path d="M87.6777 63.1318H85.9897V67.6401H85.2877V63.1318H83.5957V62.5532H87.6777V63.1318Z" fill="white"/>
<path d="M91.5588 67.0793L91.5558 67.6401H88.3428V62.5532H91.5558V63.1141H89.0488V64.8038H91.0788V65.3434H89.0488V67.0793H91.5588Z" fill="white"/>
<path d="M95.98 66.5896C96.019 66.5896 96.053 66.605 96.082 66.6357L96.362 66.9304C96.149 67.1718 95.889 67.3599 95.584 67.4948C95.28 67.6297 94.913 67.6971 94.481 67.6971C94.108 67.6971 93.768 67.6344 93.462 67.509C93.157 67.3812 92.896 67.2037 92.68 66.9765C92.464 66.747 92.297 66.4724 92.178 66.1529C92.059 65.8335 92 65.482 92 65.0986C92 64.7153 92.062 64.3638 92.185 64.0443C92.309 63.7248 92.482 63.4503 92.706 63.2208C92.931 62.9912 93.2 62.8137 93.513 62.6883C93.826 62.5605 94.172 62.4966 94.55 62.4966C94.921 62.4966 95.249 62.5546 95.533 62.6705C95.816 62.7865 96.066 62.9439 96.282 63.1427L96.049 63.4586C96.035 63.4823 96.015 63.5024 95.991 63.5189C95.969 63.5331 95.939 63.5402 95.9 63.5402C95.856 63.5402 95.803 63.5178 95.74 63.4728C95.677 63.4255 95.594 63.3734 95.493 63.3166C95.391 63.2598 95.263 63.2089 95.111 63.164C94.958 63.1166 94.77 63.093 94.547 63.093C94.277 63.093 94.031 63.1391 93.808 63.2314C93.585 63.3213 93.392 63.4527 93.229 63.6254C93.069 63.7982 92.944 64.0088 92.855 64.2573C92.765 64.5058 92.72 64.7862 92.72 65.0986C92.72 65.4158 92.766 65.6986 92.858 65.9471C92.953 66.1955 93.08 66.4062 93.24 66.5789C93.403 66.7493 93.593 66.8795 93.812 66.9694C94.032 67.0593 94.27 67.1043 94.525 67.1043C94.68 67.1043 94.819 67.096 94.943 67.0795C95.069 67.0605 95.184 67.0321 95.289 66.9943C95.396 66.9564 95.494 66.9091 95.584 66.8523C95.676 66.7931 95.767 66.7233 95.856 66.6428C95.898 66.6073 95.939 66.5896 95.98 66.5896Z" fill="white"/>
<path d="M101.296 62.5532V67.6401H100.59V65.3256H97.7773V67.6401H97.0713V62.5532H97.7773V64.8215H100.59V62.5532H101.296Z" fill="white"/>
<path d="M106.743 62.5532V67.6401H106.391C106.335 67.6401 106.287 67.6307 106.249 67.6117C106.212 67.5928 106.176 67.5609 106.139 67.5159L103.123 63.682C103.128 63.7412 103.132 63.7992 103.134 63.856C103.137 63.9128 103.138 63.966 103.138 64.0157V67.6401H102.519V62.5532H102.883C102.915 62.5532 102.941 62.5555 102.963 62.5603C102.985 62.5626 103.004 62.5686 103.021 62.578C103.038 62.5851 103.055 62.597 103.072 62.6135C103.089 62.6277 103.108 62.6467 103.127 62.6703L106.143 66.5006C106.138 66.4391 106.133 66.3799 106.129 66.3231C106.126 66.264 106.125 66.2084 106.125 66.1563V62.5532H106.743Z" fill="white"/>
<path d="M112.784 65.0986C112.784 65.4797 112.723 65.8299 112.599 66.1494C112.475 66.4665 112.301 66.7399 112.075 66.9694C111.849 67.199 111.578 67.3777 111.26 67.5054C110.945 67.6309 110.595 67.6936 110.212 67.6936C109.829 67.6936 109.48 67.6309 109.164 67.5054C108.849 67.3777 108.578 67.199 108.353 66.9694C108.127 66.7399 107.953 66.4665 107.829 66.1494C107.705 65.8299 107.643 65.4797 107.643 65.0986C107.643 64.7176 107.705 64.3685 107.829 64.0514C107.953 63.7319 108.127 63.4574 108.353 63.2279C108.578 62.9959 108.849 62.8161 109.164 62.6883C109.48 62.5605 109.829 62.4966 110.212 62.4966C110.595 62.4966 110.945 62.5605 111.26 62.6883C111.578 62.8161 111.849 62.9959 112.075 63.2279C112.301 63.4574 112.475 63.7319 112.599 64.0514C112.723 64.3685 112.784 64.7176 112.784 65.0986ZM112.06 65.0986C112.06 64.7862 112.017 64.5058 111.929 64.2573C111.842 64.0088 111.718 63.7994 111.558 63.629C111.398 63.4562 111.204 63.3237 110.976 63.2314C110.748 63.1391 110.493 63.093 110.212 63.093C109.933 63.093 109.68 63.1391 109.452 63.2314C109.224 63.3237 109.028 63.4562 108.866 63.629C108.706 63.7994 108.582 64.0088 108.495 64.2573C108.407 64.5058 108.364 64.7862 108.364 65.0986C108.364 65.411 108.407 65.6915 108.495 65.94C108.582 66.1861 108.706 66.3955 108.866 66.5683C109.028 66.7387 109.224 66.87 109.452 66.9623C109.68 67.0522 109.933 67.0972 110.212 67.0972C110.493 67.0972 110.748 67.0522 110.976 66.9623C111.204 66.87 111.398 66.7387 111.558 66.5683C111.718 66.3955 111.842 66.1861 111.929 65.94C112.017 65.6915 112.06 65.411 112.06 65.0986Z" fill="white"/>
<path d="M116.643 67.0615V67.6401H113.685V62.5532H114.387V67.0615H116.643Z" fill="white"/>
<path d="M121.89 65.0986C121.89 65.4797 121.828 65.8299 121.704 66.1494C121.58 66.4665 121.406 66.7399 121.18 66.9694C120.954 67.199 120.683 67.3777 120.365 67.5054C120.05 67.6309 119.7 67.6936 119.317 67.6936C118.934 67.6936 118.585 67.6309 118.269 67.5054C117.954 67.3777 117.684 67.199 117.458 66.9694C117.232 66.7399 117.058 66.4665 116.934 66.1494C116.81 65.8299 116.748 65.4797 116.748 65.0986C116.748 64.7176 116.81 64.3685 116.934 64.0514C117.058 63.7319 117.232 63.4574 117.458 63.2279C117.684 62.9959 117.954 62.8161 118.269 62.6883C118.585 62.5605 118.934 62.4966 119.317 62.4966C119.7 62.4966 120.05 62.5605 120.365 62.6883C120.683 62.8161 120.954 62.9959 121.18 63.2279C121.406 63.4574 121.58 63.7319 121.704 64.0514C121.828 64.3685 121.89 64.7176 121.89 65.0986ZM121.165 65.0986C121.165 64.7862 121.122 64.5058 121.034 64.2573C120.947 64.0088 120.823 63.7994 120.663 63.629C120.503 63.4562 120.309 63.3237 120.081 63.2314C119.853 63.1391 119.599 63.093 119.317 63.093C119.038 63.093 118.785 63.1391 118.557 63.2314C118.329 63.3237 118.133 63.4562 117.971 63.629C117.811 63.7994 117.687 64.0088 117.6 64.2573C117.513 64.5058 117.469 64.7862 117.469 65.0986C117.469 65.411 117.513 65.6915 117.6 65.94C117.687 66.1861 117.811 66.3955 117.971 66.5683C118.133 66.7387 118.329 66.87 118.557 66.9623C118.785 67.0522 119.038 67.0972 119.317 67.0972C119.599 67.0972 119.853 67.0522 120.081 66.9623C120.309 66.87 120.503 66.7387 120.663 66.5683C120.823 66.3955 120.947 66.1861 121.034 65.94C121.122 65.6915 121.165 65.411 121.165 65.0986Z" fill="white"/>
<path d="M127.025 65.1945V67.1469C126.763 67.3315 126.483 67.4699 126.185 67.5622C125.889 67.6522 125.564 67.6971 125.21 67.6971C124.79 67.6971 124.412 67.6344 124.075 67.509C123.737 67.3812 123.449 67.2037 123.209 66.9765C122.971 66.747 122.788 66.4724 122.659 66.1529C122.531 65.8335 122.466 65.482 122.466 65.0986C122.466 64.7105 122.528 64.3567 122.652 64.0372C122.778 63.7177 122.956 63.4444 123.187 63.2172C123.417 62.9876 123.697 62.8102 124.027 62.6847C124.357 62.5593 124.726 62.4966 125.133 62.4966C125.34 62.4966 125.531 62.512 125.708 62.5427C125.885 62.5711 126.049 62.6137 126.199 62.6705C126.35 62.725 126.489 62.7924 126.618 62.8729C126.746 62.951 126.866 63.0397 126.978 63.1391L126.778 63.4515C126.746 63.4988 126.705 63.5296 126.654 63.5438C126.606 63.5556 126.551 63.5438 126.49 63.5083C126.432 63.4752 126.366 63.4349 126.29 63.3876C126.215 63.3403 126.123 63.2953 126.014 63.2527C125.907 63.2077 125.78 63.1699 125.632 63.1391C125.486 63.1083 125.313 63.093 125.112 63.093C124.818 63.093 124.552 63.1403 124.315 63.235C124.077 63.3273 123.874 63.461 123.707 63.6361C123.54 63.8089 123.411 64.0195 123.321 64.268C123.232 64.5141 123.187 64.791 123.187 65.0986C123.187 65.4181 123.233 65.7045 123.325 65.9577C123.42 66.2086 123.553 66.4227 123.725 66.6002C123.9 66.7754 124.111 66.9091 124.358 67.0014C124.606 67.0937 124.884 67.1398 125.192 67.1398C125.434 67.1398 125.649 67.1138 125.836 67.0617C126.025 67.0073 126.209 66.9327 126.389 66.8381V65.7199H125.577C125.531 65.7199 125.494 65.7068 125.464 65.6808C125.438 65.6548 125.424 65.6228 125.424 65.585V65.1945H127.025Z" fill="white"/>
<path d="M129.833 65.6132V67.6401H129.127V65.6132L127.217 62.5532H127.836C127.899 62.5532 127.948 62.5686 127.985 62.5993C128.021 62.6277 128.053 62.6656 128.079 62.7129L129.273 64.6902C129.317 64.773 129.357 64.8511 129.393 64.9245C129.429 64.9955 129.461 65.0677 129.488 65.141C129.514 65.0677 129.545 64.9955 129.578 64.9245C129.612 64.8511 129.65 64.773 129.691 64.6902L130.881 62.7129C130.903 62.6727 130.933 62.636 130.972 62.6029C131.011 62.5697 131.061 62.5532 131.121 62.5532H131.743L129.833 65.6132Z" fill="white"/>
<path d="M30.5625 57.4508V29.8003H34.4309V57.4508H30.5625Z" fill="white"/>
<path d="M54.968 49.5921L45.7932 39.5091V57.4299H41.9248V29.3013L54.9275 43.1057L68.072 29.3013V57.4507H64.204V39.5299L54.968 49.5921Z" fill="white"/>
<path d="M89.3587 29.8423L102.017 57.7007H97.6017L94.6047 50.7361C94.6047 50.7361 89.5407 50.7777 86.1177 52.0666C82.2897 53.5219 78.7457 57.7007 78.7457 57.7007H74.4727L87.4347 29.8423H89.3587ZM92.8827 47.1186L88.1227 37.5553L82.6547 49.8837C83.7277 49.26 84.0117 48.9897 85.9767 48.1997C87.9207 47.4305 92.8827 47.1186 92.8827 47.1186Z" fill="white"/>
<path d="M111.07 29.8423L128.447 51.0479V29.9047H132.437V57.7007H128.528L113.014 38.3453V57.7007H109.146V29.8423H111.07Z" fill="white"/>
</svg>

<svg xmlns="http://www.w3.org/2000/svg" width="163" height="97" fill="none" xmlns:v="https://vecta.io/nano"><path d="M147 0H16C7.163 0 0 7.163 0 16v65c0 8.837 7.163 16 16 16h131c8.837 0 16-7.163 16-16V16c0-8.837-7.163-16-16-16z" fill="#01cab0"/><path d="M31.934 63.114v1.778h2.143v.561h-2.143v2.187h-.706v-5.087h3.213v.561h-2.507zm5.65 2.638l-.819-2.07-.076-.213-.076-.263a3.81 3.81 0 0 1-.156.479l-.819 2.066h1.947zm1.47 1.889h-.546c-.063 0-.114-.015-.153-.046s-.068-.07-.087-.117l-.487-1.228h-2.34l-.487 1.228a.25.25 0 0 1-.084.114c-.041.033-.092.05-.153.05h-.546l2.085-5.087h.713l2.085 5.087zm1.282-.001h-.706v-5.087h.706v5.087zm4.75-4.508h-1.688v4.508h-.702v-4.508h-1.692v-.579h4.082v.579zm4.889-.579v5.087h-.706v-2.315h-2.812v2.315h-.706v-5.087h.706v2.268h2.812v-2.268h.706zm9.248 2.545c0 .381-.062.728-.186 1.04a2.3 2.3 0 0 1-.524.802 2.35 2.35 0 0 1-.815.518 2.91 2.91 0 0 1-1.048.181h-1.947v-5.087h1.947a2.86 2.86 0 0 1 1.048.185 2.29 2.29 0 0 1 .815.518 2.3 2.3 0 0 1 .524.802c.124.312.186.659.186 1.04zm-.724 0c0-.312-.044-.592-.131-.838a1.76 1.76 0 0 0-.371-.625c-.16-.171-.354-.301-.582-.391s-.483-.135-.764-.135H55.41v3.972h1.241c.281 0 .536-.045.764-.135s.422-.219.582-.387.284-.379.371-.625.131-.525.131-.838zm3.076-.081c.204 0 .383-.024.538-.071s.289-.118.393-.206.187-.196.24-.32.08-.259.08-.408c0-.303-.101-.531-.305-.685s-.51-.231-.917-.231h-.771v1.921h.742zm2.408 2.623h-.625c-.129 0-.224-.049-.284-.145l-1.354-1.818c-.041-.057-.086-.097-.134-.121s-.119-.039-.219-.039h-.534v2.123h-.703v-5.087h1.474a3.25 3.25 0 0 1 .855.099 1.61 1.61 0 0 1 .593.28 1.12 1.12 0 0 1 .349.447 1.45 1.45 0 0 1 .113.582c0 .18-.029.348-.087.504s-.143.297-.255.422-.244.228-.404.316a1.99 1.99 0 0 1-.538.199c.089.05.167.122.233.217l1.52 2.02zm1.306 0h-.706v-5.087h.706v5.087zm5.463-5.087l-2.124 5.087h-.633l-2.125-5.087h.564a.24.24 0 0 1 .153.046.3.3 0 0 1 .087.117l1.47 3.589.091.263.083.298.077-.298a2.77 2.77 0 0 1 .087-.263l1.466-3.589a.26.26 0 0 1 .084-.11c.044-.035.096-.053.157-.053h.563zm3.794 4.526l-.004.561h-3.213v-5.087h3.213v.561h-2.507v1.69h2.03v.54h-2.03v1.736h2.511zm5.098-4.526v5.087h-.353a.32.32 0 0 1-.142-.028.36.36 0 0 1-.109-.096l-3.016-3.834.011.174.003.16v3.624h-.618v-5.087h.364a.37.37 0 0 1 .08.007.15.15 0 0 1 .058.018c.017.007.034.019.051.035s.035.033.054.057l3.017 3.83-.015-.178-.004-.167v-3.603h.619zm8.034.579H85.99v4.508h-.702v-4.508h-1.692v-.579h4.082v.579zm3.881 3.947l-.003.561h-3.213v-5.087h3.213v.561h-2.507v1.69h2.03v.54h-2.03v1.736h2.51zm4.421-.489c.039 0 .073.015.102.046l.28.295a2.22 2.22 0 0 1-.778.564c-.304.135-.671.202-1.103.202-.373 0-.713-.063-1.019-.188a2.28 2.28 0 0 1-.782-.532c-.216-.23-.383-.504-.502-.824A3 3 0 0 1 92 65.099a2.91 2.91 0 0 1 .185-1.054 2.41 2.41 0 0 1 .521-.824c.225-.23.494-.407.807-.532a2.72 2.72 0 0 1 1.037-.192c.371 0 .699.058.983.174a2.49 2.49 0 0 1 .749.472l-.233.316c-.014.024-.034.044-.058.06s-.052.021-.091.021c-.044 0-.097-.022-.16-.067a2.3 2.3 0 0 0-.247-.156 1.9 1.9 0 0 0-.382-.153c-.153-.047-.341-.071-.564-.071a1.92 1.92 0 0 0-.739.138 1.62 1.62 0 0 0-.579.394 1.82 1.82 0 0 0-.374.632 2.46 2.46 0 0 0-.135.841c0 .317.046.6.138.849a1.88 1.88 0 0 0 .382.632 1.65 1.65 0 0 0 .572.39c.22.09.458.135.713.135a3.1 3.1 0 0 0 .418-.025 1.82 1.82 0 0 0 .346-.085 1.47 1.47 0 0 0 .295-.142c.092-.059.183-.129.272-.21.042-.035.083-.053.124-.053zm5.316-4.037v5.087h-.706v-2.315h-2.813v2.315h-.706v-5.087h.706v2.268h2.813v-2.268h.706zm5.447 0v5.087h-.352c-.056 0-.104-.009-.142-.028s-.073-.051-.11-.096l-3.016-3.834.011.174.004.16v3.624h-.619v-5.087h.364c.032 0 .058.002.08.007a.15.15 0 0 1 .058.018c.017.007.034.019.051.035s.036.033.055.057l3.016 3.83-.014-.178-.004-.167v-3.603h.618zm6.041 2.546a2.88 2.88 0 0 1-.185 1.051 2.39 2.39 0 0 1-.524.82c-.226.229-.497.408-.815.536a2.81 2.81 0 0 1-1.048.188c-.383 0-.732-.063-1.048-.188a2.31 2.31 0 0 1-.811-.536c-.225-.23-.4-.503-.524-.82a2.88 2.88 0 0 1-.186-1.051 2.85 2.85 0 0 1 .186-1.047 2.42 2.42 0 0 1 .524-.824 2.34 2.34 0 0 1 .811-.54 2.77 2.77 0 0 1 1.048-.192c.383 0 .733.064 1.048.192a2.34 2.34 0 0 1 .815.54 2.39 2.39 0 0 1 .524.824c.124.32.185.666.185 1.047zm-.724 0a2.51 2.51 0 0 0-.131-.841 1.74 1.74 0 0 0-.371-.628 1.6 1.6 0 0 0-.582-.398 2.02 2.02 0 0 0-.764-.138c-.279 0-.532.046-.76.138a1.63 1.63 0 0 0-.586.398c-.16.17-.284.38-.371.628a2.51 2.51 0 0 0-.131.841 2.51 2.51 0 0 0 .131.841 1.79 1.79 0 0 0 .371.628c.162.17.358.302.586.394s.481.135.76.135.536-.045.764-.135a1.62 1.62 0 0 0 .582-.394 1.79 1.79 0 0 0 .371-.628 2.51 2.51 0 0 0 .131-.841zm4.583 1.963v.579h-2.958v-5.087h.702v4.508h2.256zm5.247-1.963a2.88 2.88 0 0 1-.186 1.051 2.39 2.39 0 0 1-.524.82c-.226.229-.497.408-.815.536a2.81 2.81 0 0 1-1.048.188c-.383 0-.732-.063-1.048-.188a2.32 2.32 0 0 1-.811-.536 2.4 2.4 0 0 1-.524-.82 2.88 2.88 0 0 1-.186-1.051 2.85 2.85 0 0 1 .186-1.047 2.42 2.42 0 0 1 .524-.824 2.35 2.35 0 0 1 .811-.54 2.77 2.77 0 0 1 1.048-.192c.383 0 .733.064 1.048.192a2.34 2.34 0 0 1 .815.54 2.39 2.39 0 0 1 .524.824c.124.32.186.666.186 1.047zm-.725 0a2.51 2.51 0 0 0-.131-.841 1.74 1.74 0 0 0-.371-.628 1.6 1.6 0 0 0-.582-.398c-.228-.092-.482-.138-.764-.138s-.532.046-.76.138a1.63 1.63 0 0 0-.586.398c-.16.17-.284.38-.371.628s-.131.529-.131.841.044.593.131.841a1.79 1.79 0 0 0 .371.628c.162.17.358.302.586.394s.481.135.76.135.536-.045.764-.135a1.62 1.62 0 0 0 .582-.394 1.79 1.79 0 0 0 .371-.628 2.51 2.51 0 0 0 .131-.841zm5.86.096v1.952c-.262.185-.542.323-.84.415a3.34 3.34 0 0 1-.975.135c-.42 0-.798-.063-1.135-.188s-.626-.305-.866-.532a2.35 2.35 0 0 1-.55-.824 2.81 2.81 0 0 1-.193-1.054 2.91 2.91 0 0 1 .186-1.061c.126-.319.304-.593.535-.82s.51-.407.84-.532.699-.188 1.106-.188c.207 0 .398.015.575.046a2.69 2.69 0 0 1 .491.128c.15.057.29.122.419.202s.248.167.36.266l-.2.312c-.032.047-.073.078-.124.092s-.103 0-.164-.035l-.2-.121a1.64 1.64 0 0 0-.276-.135 2.09 2.09 0 0 0-.382-.114 2.55 2.55 0 0 0-.52-.046c-.294 0-.56.047-.797.142s-.441.226-.608.401a1.77 1.77 0 0 0-.386.632 2.43 2.43 0 0 0-.134.831c0 .319.046.606.138.859a1.85 1.85 0 0 0 .4.642c.175.175.386.309.633.401a2.38 2.38 0 0 0 .834.138c.242 0 .457-.026.644-.078a2.8 2.8 0 0 0 .553-.224V65.72h-.812c-.046 0-.083-.013-.113-.039s-.04-.058-.04-.096v-.39h1.601zm2.808.418v2.027h-.706v-2.027l-1.91-3.06h.619c.063 0 .112.015.149.046a.37.37 0 0 1 .094.114l1.194 1.977.12.234a1.98 1.98 0 0 1 .095.217c.026-.073.057-.145.09-.217l.113-.234 1.19-1.977a.39.39 0 0 1 .091-.11c.039-.033.089-.05.149-.05h.622l-1.91 3.06zm-99.27-8.162V29.8h3.868v27.651h-3.868zm24.405-7.859l-9.175-10.083V57.43h-3.868V29.301l13.003 13.804 13.145-13.804V57.45h-3.868V39.53l-9.236 10.062zm34.391-19.75L102.017 57.7h-4.415l-2.997-6.965s-5.064.042-8.487 1.331c-3.828 1.455-7.372 5.634-7.372 5.634h-4.273l12.962-27.858h1.924zm3.524 17.276l-4.76-9.563-5.468 12.328c1.073-.624 1.357-.894 3.322-1.684 1.944-.769 6.906-1.081 6.906-1.081zm18.187-17.276l17.377 21.206V29.905h3.99v27.796h-3.909l-15.514-19.355v19.355h-3.868V29.842h1.924z" fill="#fff"/></svg>
